X: 31165
T: Paddy Fahey's
R: reel
M: 4/4
K: Ddorian
|:D^CDE F3G|AD~ED d3e|fedf eA~BA|d2AG FDEC|
DA, ~A,2 DEFG|AD ~D2 d^cde|fedf eA~BA|1 d2AG FDCA,:|2 d2AG FDD2||
|:Ad ~d2 fded|cBcG EFGc|Ad ~d2 fded|cBcd edd2|
a2^ga AB~BA|dcAd cAGE|DA,~A,2DEFG|1 AD~D2d3c:|2 AdcA d4||

